packages/web/src/assets/images/icons/send.svg

<svg fill="none" height="22" viewBox="0 0 22 22" width="22" xmlns="http://www.w3.org/2000/svg"><path clip-rule="evenodd" d="m21.7071.292921c.2235.223484.3191.526429.2868.817889-.0091.08171-.0282.16251-.0573.2404l-6.9927 19.97919c-.1355.387-.4935.6521-.9031.6688-.4097.0167-.7881-.2184-.9546-.593l-3.8438-8.6486-8.648533-3.84376c-.374681-.16653-.6097445-.5449-.59303071-.95458.01671381-.40967.28181771-.76764.66881871-.90309l19.979145-6.9926918c.0784-.0293423.1597-.0485078.2419-.05749623.0604-.00664388.121-.00771974.181-.00339599.2315.01654292.4584.11332102.6354.29033502zm-4.5128 3.098579-13.48322 4.71913 6.06746 2.69667zm-6.0015 8.83 7.4157-7.41579-4.7191 13.48329z" fill="#148751" fill-rule="evenodd"/></svg>

<svg width="22" height="22" viewBox="0 0 22 22" xmlns="http://www.w3.org/2000/svg">
    <path fill-rule="evenodd" clip-rule="evenodd" d="M21.7071 0.292921C21.9306 0.516405 22.0262 0.81935 21.9939 1.11081C21.9848 1.19252 21.9657 1.27332 21.9366 1.35121L14.9439 21.3304C14.8084 21.7174 14.4504 21.9825 14.0408 21.9992C13.6311 22.0159 13.2527 21.7808 13.0862 21.4062L9.2424 12.7576L0.593867 8.91384C0.219186 8.74731 -0.0158775 8.36894 0.000836313 7.95926C0.0175501 7.54959 0.282654 7.19162 0.669655 7.05617L20.6488 0.0634782C20.7272 0.0341358 20.8085 0.0149704 20.8907 0.00598195C20.9511 -0.000661925 21.0117 -0.00173778 21.0717 0.00258596C21.3032 0.0191289 21.5301 0.115907 21.7071 0.292921ZM17.1943 3.3915L3.71108 8.11063L9.77854 10.8073L17.1943 3.3915ZM11.1928 12.2215L18.6085 4.80571L13.8894 18.289L11.1928 12.2215Z"/>
</svg>
